images/logo.svg

<svg fill="none" height="46" viewBox="0 0 126 46" width="126" xmlns="http://www.w3.org/2000/svg" xmlns:xlink="http://www.w3.org/1999/xlink"><mask id="a" fill="#fff"><path d="m84 11.5c0-4.41828 3.5817-8 8-8h26c4.418 0 8 3.58172 8 8v26c0 4.4183-3.582 8-8 8h-26c-4.4183 0-8-3.5817-8-8zm12.6025 13.0039c.0003 4.6378 3.7605 8.3974 8.3995 8.3975 4.639 0 8.4-3.7597 8.4-8.3975 0-4.638-3.761-8.3984-8.4-8.3984s-8.3995 3.7604-8.3995 8.3984z" fill="#fff"/></mask><g fill="#fff"><path d="m.5 11.5c0-4.14214 3.35786-7.5 7.5-7.5h26c4.1421 0 7.5 3.35786 7.5 7.5v26c0 4.1421-3.3579 7.5-7.5 7.5h-33.5z" stroke="#fff"/><path d="m84 11.5c0-4.41828 3.5817-8 8-8h26c4.418 0 8 3.58172 8 8v26c0 4.4183-3.582 8-8 8h-26c-4.4183 0-8-3.5817-8-8zm12.6025 13.0039c.0003 4.6378 3.7605 8.3974 8.3995 8.3975 4.639 0 8.4-3.7597 8.4-8.3975 0-4.638-3.761-8.3984-8.4-8.3984s-8.3995 3.7604-8.3995 8.3984z"/><path d="m92 3.5v-1zm26 0v-1zm8 8h1zm-8 34v1zm-26 0v1zm-8-8h-1zm12.6025-12.9961h-1v.0001zm8.3995 8.3975v1zm8.4-8.3975 1 .0001v-.0001zm-8.4-8.3984v-1zm-21.002-4.6055h1c0-3.86599 3.134-7 7-7v-1-1c-4.9706 0-9 4.02944-9 9zm8-8v1h26v-1-1h-26zm26 0v1c3.866 0 7 3.13401 7 7h1 1c0-4.97056-4.029-9-9-9zm8 8h-1v26h1 1v-26zm0 26h-1c0 3.866-3.134 7-7 7v1 1c4.971 0 9-4.0294 9-9zm-8 8v-1h-26v1 1h26zm-26 0v-1c-3.866 0-7-3.134-7-7h-1-1c0 4.9706 4.0294 9 9 9zm-8-8h1v-26h-1-1v26zm12.6025-12.9961-1 .0001c.0003 5.1902 4.2083 9.3973 9.3995 9.3974v-1-1c-4.087-.0001-7.3993-3.3122-7.3995-7.3975zm8.3995 8.3975v1c5.191 0 9.4-4.2071 9.4-9.3974l-1-.0001h-1c0 4.0852-3.313 7.3975-7.4 7.3975zm8.4-8.3975h1c0-5.1905-4.209-9.3984-9.4-9.3984v1 1c4.087 0 7.4 3.3129 7.4 7.3984zm-8.4-8.3984v-1c-5.1914 0-9.3995 4.2081-9.3995 9.3984h1 1c0-4.0856 3.3125-7.3984 7.3995-7.3984z" mask="url(#a)"/><path clip-rule="evenodd" d="m53.6667-.00016421c.6188 0 1.2123.23968921 1.6499.66633221.4376.426642.6834 1.005302.6834 1.608672v2.275h-4.6667v-2.275c0-.60337.2459-1.18203.6835-1.608672.4375-.426643 1.031-.66633221 1.6499-.66633221zm21 4.55000421h2.3333c1.8565 0 3.637.71907 4.9497 1.99899 1.3128 1.27993 2.0503 3.01592 2.0503 4.82597v27.3c0 1.8101-.7375 3.5461-2.0503 4.826-1.3127 1.28-3.0932 1.999-4.9497 1.999h-28c-1.8565 0-3.637-.719-4.9497-1.999-1.3128-1.2799-2.0503-3.0159-2.0503-4.826v-27.3c0-1.81005.7375-3.54604 2.0503-4.82597 1.3127-1.27992 3.0932-1.99899 4.9497-1.99899h2.3333v6.82496c0 .6034.2459 1.1821.6835 1.6087.4375.4266 1.031.6663 1.6499.6663.6188 0 1.2123-.2397 1.6499-.6663s.6834-1.0053.6834-1.6087v-6.82496h4.6667v6.82496c0 .6034.2458 1.1821.6834 1.6087s1.0311.6663 1.6499.6663 1.2123-.2397 1.6499-.6663.6834-1.0053.6834-1.6087v-6.82496h4.6667v6.82496c0 .6034.2458 1.1821.6834 1.6087s1.0311.6663 1.6499.6663c.6189 0 1.2124-.2397 1.65-.6663.4375-.4266.6834-1.0053.6834-1.6087zm0 0h-4.6667v-2.275c0-.60337.2458-1.18203.6834-1.608672.4376-.426643 1.0311-.66633221 1.6499-.66633221.6189 0 1.2124.23968921 1.65.66633221.4375.426642.6834 1.005302.6834 1.608672zm-9.3334 0v-2.275c0-.60337-.2458-1.18203-.6834-1.608672-.4376-.426643-1.0311-.66633221-1.6499-.66633221s-1.2123.23968921-1.6499.66633221c-.4376.426642-.6834 1.005302-.6834 1.608672v2.275z" fill-rule="evenodd"/></g></svg>

<svg width="126" height="46" viewBox="0 0 126 46" fill="none" xmlns="http://www.w3.org/2000/svg">
<path d="M0.5 11.5C0.5 7.35786 3.85786 4 8 4L34 4C38.1421 4 41.5 7.35786 41.5 11.5L41.5 37.5C41.5 41.6421 38.1421 45 34 45L0.5 45L0.5 11.5Z" fill="white" stroke="white"/>
<mask id="path-2-inside-1_7599_1599" fill="white">
<path d="M84 11.5C84 7.08172 87.5817 3.5 92 3.5L118 3.5C122.418 3.5 126 7.08172 126 11.5L126 37.5C126 41.9183 122.418 45.5 118 45.5L92 45.5C87.5817 45.5 84 41.9183 84 37.5L84 11.5ZM96.6025 24.5039C96.6028 29.1417 100.363 32.9013 105.002 32.9014C109.641 32.9014 113.402 29.1417 113.402 24.5039C113.402 19.8659 109.641 16.1055 105.002 16.1055C100.363 16.1055 96.6025 19.8659 96.6025 24.5039Z"/>
</mask>
<path d="M84 11.5C84 7.08172 87.5817 3.5 92 3.5L118 3.5C122.418 3.5 126 7.08172 126 11.5L126 37.5C126 41.9183 122.418 45.5 118 45.5L92 45.5C87.5817 45.5 84 41.9183 84 37.5L84 11.5ZM96.6025 24.5039C96.6028 29.1417 100.363 32.9013 105.002 32.9014C109.641 32.9014 113.402 29.1417 113.402 24.5039C113.402 19.8659 109.641 16.1055 105.002 16.1055C100.363 16.1055 96.6025 19.8659 96.6025 24.5039Z" fill="white"/>
<path d="M92 3.5L92 2.5L92 3.5ZM118 3.5L118 2.5L118 3.5ZM126 11.5L127 11.5L126 11.5ZM118 45.5L118 46.5L118 45.5ZM92 45.5L92 46.5L92 45.5ZM84 37.5L83 37.5L84 37.5ZM96.6025 24.5039L95.6025 24.5039L95.6025 24.504L96.6025 24.5039ZM105.002 32.9014L105.002 33.9014L105.002 33.9014L105.002 32.9014ZM113.402 24.5039L114.402 24.504L114.402 24.5039L113.402 24.5039ZM105.002 16.1055L105.002 15.1055L105.002 15.1055L105.002 16.1055ZM84 11.5L85 11.5C85 7.63401 88.134 4.5 92 4.5L92 3.5L92 2.5C87.0294 2.5 83 6.52944 83 11.5L84 11.5ZM92 3.5L92 4.5L118 4.5L118 3.5L118 2.5L92 2.5L92 3.5ZM118 3.5L118 4.5C121.866 4.5 125 7.63401 125 11.5L126 11.5L127 11.5C127 6.52944 122.971 2.5 118 2.5L118 3.5ZM126 11.5L125 11.5L125 37.5L126 37.5L127 37.5L127 11.5L126 11.5ZM126 37.5L125 37.5C125 41.366 121.866 44.5 118 44.5L118 45.5L118 46.5C122.971 46.5 127 42.4706 127 37.5L126 37.5ZM118 45.5L118 44.5L92 44.5L92 45.5L92 46.5L118 46.5L118 45.5ZM92 45.5L92 44.5C88.134 44.5 85 41.366 85 37.5L84 37.5L83 37.5C83 42.4706 87.0294 46.5 92 46.5L92 45.5ZM84 37.5L85 37.5L85 11.5L84 11.5L83 11.5L83 37.5L84 37.5ZM96.6025 24.5039L95.6025 24.504C95.6028 29.6942 99.8108 33.9013 105.002 33.9014L105.002 32.9014L105.002 31.9014C100.915 31.9013 97.6027 28.5892 97.6025 24.5039L96.6025 24.5039ZM105.002 32.9014L105.002 33.9014C110.193 33.9014 114.402 29.6943 114.402 24.504L113.402 24.5039L112.402 24.5039C112.402 28.5891 109.089 31.9014 105.002 31.9014L105.002 32.9014ZM113.402 24.5039L114.402 24.5039C114.402 19.3134 110.193 15.1055 105.002 15.1055L105.002 16.1055L105.002 17.1055C109.089 17.1055 112.402 20.4184 112.402 24.5039L113.402 24.5039ZM105.002 16.1055L105.002 15.1055C99.8106 15.1055 95.6025 19.3136 95.6025 24.5039L96.6025 24.5039L97.6025 24.5039C97.6025 20.4183 100.915 17.1055 105.002 17.1055L105.002 16.1055Z" fill="white" mask="url(#path-2-inside-1_7599_1599)"/>
<path fill-rule="evenodd" clip-rule="evenodd" d="M53.6667 -0.000164212C54.2855 -0.000164212 54.879 0.239525 55.3166 0.666168C55.7542 1.09281 56 1.67147 56 2.27484V4.54984H51.3333V2.27484C51.3333 1.67147 51.5792 1.09281 52.0168 0.666168C52.4543 0.239525 53.0478 -0.000164212 53.6667 -0.000164212ZM74.6667 4.54984H77C78.8565 4.54984 80.637 5.26891 81.9497 6.54883C83.2625 7.82876 84 9.56475 84 11.3748V38.6748C84 40.4849 83.2625 42.2209 81.9497 43.5008C80.637 44.7808 78.8565 45.4998 77 45.4998H49C47.1435 45.4998 45.363 44.7808 44.0503 43.5008C42.7375 42.2209 42 40.4849 42 38.6748V11.3748C42 9.56475 42.7375 7.82876 44.0503 6.54883C45.363 5.26891 47.1435 4.54984 49 4.54984H51.3333V11.3748C51.3333 11.9782 51.5792 12.5569 52.0168 12.9835C52.4543 13.4101 53.0478 13.6498 53.6667 13.6498C54.2855 13.6498 54.879 13.4101 55.3166 12.9835C55.7542 12.5569 56 11.9782 56 11.3748V4.54984H60.6667V11.3748C60.6667 11.9782 60.9125 12.5569 61.3501 12.9835C61.7877 13.4101 62.3812 13.6498 63 13.6498C63.6188 13.6498 64.2123 13.4101 64.6499 12.9835C65.0875 12.5569 65.3333 11.9782 65.3333 11.3748V4.54984H70V11.3748C70 11.9782 70.2458 12.5569 70.6834 12.9835C71.121 13.4101 71.7145 13.6498 72.3333 13.6498C72.9522 13.6498 73.5457 13.4101 73.9833 12.9835C74.4208 12.5569 74.6667 11.9782 74.6667 11.3748V4.54984ZM74.6667 4.54984H70V2.27484C70 1.67147 70.2458 1.09281 70.6834 0.666168C71.121 0.239525 71.7145 -0.000164212 72.3333 -0.000164212C72.9522 -0.000164212 73.5457 0.239525 73.9833 0.666168C74.4208 1.09281 74.6667 1.67147 74.6667 2.27484V4.54984ZM65.3333 4.54984V2.27484C65.3333 1.67147 65.0875 1.09281 64.6499 0.666168C64.2123 0.239525 63.6188 -0.000164212 63 -0.000164212C62.3812 -0.000164212 61.7877 0.239525 61.3501 0.666168C60.9125 1.09281 60.6667 1.67147 60.6667 2.27484V4.54984H65.3333Z" fill="white"/>
</svg>
